storage/app/icons/phosphoricons/bold/checkerboard-bold.svg

<svg xmlns="http://www.w3.org/2000/svg" fill="currentColor" viewBox="0 0 256 256"><path d="M228 48a20 20 0 0 0-20-20H48a20 20 0 0 0-20 20v160a20 20 0 0 0 20 20h160a20 20 0 0 0 20-20Zm-35 68-53-53V52h11l53 53v11Zm-53-19 19 19h-19Zm64-26-19-19h19Zm-88-19v64H52V52Zm-11 152-53-53v-11h11l53 53v11Zm11-45-19-19h19Zm-64 26 19 19H52Zm88 19v-64h64v64Z"/></svg>

<svg xmlns="http://www.w3.org/2000/svg" viewBox="0 0 256 256" fill="currentColor"><path d="M228,48a20,20,0,0,0-20-20H48A20,20,0,0,0,28,48V208a20,20,0,0,0,20,20H208a20,20,0,0,0,20-20Zm-35,68L140,63V52h11l53,53v11ZM140,97l19,19H140ZM204,71,185,52h19ZM116,52V68h0v48H52V52ZM105,204,52,151V140H63l53,53v11Zm11-45L97,140h19ZM52,185l19,19H52Zm88,19V188h0V140h64v64Z"/></svg>
